dist/svg/u1F9F4.svg

<?xml version="1.0" encoding="UTF-8"?><svg id="a" xmlns="http://www.w3.org/2000/svg" viewBox="0 0 40 40"><g><path d="M26.066,38H13.934c-2.612,0-4.662-2.239-4.432-4.84l1.531-17.376c.202-2.297,2.126-4.059,4.432-4.059h9.069c2.306,0,4.23,1.762,4.432,4.059l1.531,17.376c.229,2.601-1.821,4.84-4.432,4.84Z" fill="#ffb5ad"/><path d="M16.231,8.054h7.539c.498,0,.902,.404,.902,.902v2.937H15.329v-2.937c0-.498,.404-.902,.902-.902Z" fill="#5a81ff"/><rect x="17.846" y="5.133" width="4.308" height="4.294" fill="#5a81ff"/><path d="M28.265,5.344h-10.795c-.396,0-.717-.321-.717-.717v-1.91c0-.441,.395-.778,.83-.708l10.795,1.73c.348,.056,.604,.356,.604,.708v.18c0,.396-.321,.717-.717,.717Z" fill="#ffb5ad"/><circle cx="20.16" cy="24.862" r="5.55" fill="#f68c85"/></g><rect width="40" height="40" fill="none"/></svg>

<svg id="Layer_1" data-name="Layer 1" xmlns="http://www.w3.org/2000/svg" viewBox="0 0 40 40"><defs><style>.cls-1{fill:#ffb5ad;}.cls-2{fill:#5a81ff;}.cls-3{fill:#f68c85;}.cls-4{fill:none;}</style></defs><path class="cls-1" d="M26.066,38H13.934A4.45,4.45,0,0,1,9.5,33.16l1.531-17.376a4.449,4.449,0,0,1,4.432-4.059h9.07a4.449,4.449,0,0,1,4.432,4.059L30.5,33.16A4.45,4.45,0,0,1,26.066,38Z"/><path class="cls-2" d="M16.231,8.054h7.539a.9.9,0,0,1,.9.9v2.937a0,0,0,0,1,0,0H15.329a0,0,0,0,1,0,0V8.956A.9.9,0,0,1,16.231,8.054Z"/><rect class="cls-2" x="17.846" y="5.133" width="4.308" height="4.294"/><path class="cls-1" d="M28.265,5.344H17.47a.717.717,0,0,1-.717-.717V2.717a.717.717,0,0,1,.83-.708l10.8,1.73a.718.718,0,0,1,.6.708v.18A.717.717,0,0,1,28.265,5.344Z"/><circle class="cls-3" cx="20.16" cy="24.862" r="5.55"/><rect class="cls-4" width="40" height="40"/></svg>
